src/img/d4.svg

<?xml version="1.0" encoding="UTF-8"?>
<svg width="56px" height="53px" viewBox="0 0 56 53" version="1.1" xmlns="http://www.w3.org/2000/svg" xmlns:xlink="http://www.w3.org/1999/xlink" xmlns:cc="http://creativecommons.org/ns#">
		<!-- Generator: Sketch 53.2 (72643) - https://sketchapp.com -->
		<title>d4</title>
		<desc>Created with Sketch.</desc>
		<g id="Page-1" stroke="none" stroke-width="1" fill="none" fill-rule="evenodd">
				<g id="rpg_dice" transform="translate(-10.000000, -59.000000)" fill="#000000" fill-rule="nonzero">
						<path d="M38.356688,109.24697 C34.781688,107.83579 27.036011,104.83005 21.144071,102.56756 L10.431451,98.45392 L24.971381,79.47696 C32.968335,69.039632 39.859649,60.139363 40.285409,59.698585 C40.85868,59.105092 59.537843,87.731438 65.699193,98.64593 C66.099014,99.35419 62.407001,102.1232 56.032529,105.89593 C50.360075,109.25317 45.524962,111.95787 45.287832,111.90637 C45.050703,111.85487 41.931688,110.65815 38.356688,109.24697 L38.356688,109.24697 Z M60.075735,102.49058 L65.294782,99.35064 L53.659603,80.674784 C47.260254,70.403065 41.896675,62.12668 41.740538,62.282817 C41.5844,62.438954 42.323572,72.901695 43.383141,85.533352 C44.442711,98.16501 45.320219,109.10526 45.333159,109.84502 C45.356689,111.19002 46.874498,110.43284 60.075735,102.49058 L60.075735,102.49058 Z M54.917608,98.25 C54.556866,96.7375 54.007504,94.6 53.696806,93.5 C53.311544,92.136017 53.460904,91.818008 54.166477,92.5 C55.261197,93.55813 56.933349,101 56.076387,101 C55.799801,101 55.278351,99.7625 54.917608,98.25 Z M46.021299,89.825473 C45.708541,88.629484 45.915034,86.941984 46.480173,86.075473 C47.371215,84.709266 47.435425,84.732448 46.963578,86.25 C46.243792,88.564976 47.291576,91.158275 48.615981,90.339748 C49.228963,89.960904 49.36884,90.171321 48.95218,90.845492 C47.846909,92.633857 46.646454,92.216069 46.021299,89.825473 Z M53.463671,88.628907 C52.740065,87.757015 52.635525,86.420451 53.176545,84.957937 C53.793161,83.291065 54.245529,83.011124 54.820121,83.940834 C55.28359,84.690742 55.06716,85.560904 54.299105,86.035588 C53.216586,86.704622 53.215588,87.125059 54.293405,88.423785 C55.012913,89.290703 55.376577,90 55.101577,90 C54.826577,90 54.08952,89.383008 53.463671,88.628907 L53.463671,88.628907 Z M44.355295,109.75 C44.354529,109.6125 43.455156,98.7 42.356688,85.5 C41.25822,72.3 40.358847,61.337966 40.358081,61.139924 C40.357315,60.941882 36.531688,65.7513 31.856688,71.827521 C23.590441,82.57138 22.126831,84.878128 24.511191,83.404508 C25.232231,82.958881 25.394021,83.130576 24.942101,83.861803 C24.544111,84.505755 23.823561,84.788542 23.340861,84.49022 C22.171111,83.767271 12.094961,97.144431 13.084771,98.10628 C14.516191,99.49729 44.360086,110.60979 44.355295,109.75 L44.355295,109.75 Z M28.435631,102.31739 C28.390131,101.05859 27.510481,99.8662 26.357441,99.50024 C24.156641,98.80173 24.535041,97.59868 28.401991,93 L30.504198,90.5 L30.05328,95.25 C29.75719,98.36904 29.98938,100.00526 30.729525,100.01531 C31.541308,100.02631 31.548892,100.23619 30.756635,100.76531 C30.151604,101.16939 29.399631,102.175 29.085582,103 C28.695951,104.02354 28.489511,103.80672 28.435641,102.31739 L28.435631,102.31739 Z M29.20273,95.96952 C29.504851,93.896989 29.346197,93.763817 27.952731,94.920292 C26.065701,96.486388 25.807511,99.34753 27.606691,98.75501 C28.294191,98.52859 29.012411,97.275123 29.20273,95.96952 L29.20273,95.96952 Z M26.938481,88.75 C26.687521,87.5125 26.227291,85.290078 25.915761,83.811285 C25.604231,82.332492 25.801001,80.843435 26.353021,80.502268 C26.970361,80.120729 27.356691,81.696452 27.356691,84.595971 L27.356691,89.309975 L29.51149,87.404988 L31.666291,85.5 L29.89648,88.25 C27.753401,91.579999 27.520401,91.619383 26.938481,88.75 L26.938481,88.75 Z M34.856688,87.481892 C35.956688,86.586249 37.756688,85.4116 38.856688,84.871559 C40.856688,83.889668 40.856688,83.889668 38.856688,85.518108 C37.756688,86.413751 35.956688,87.5884 34.856688,88.128441 C32.856688,89.110332 32.856688,89.110332 34.856688,87.481892 Z" id="d4"></path>
				</g>
		</g>
</svg>

<!-- Created with Inkscape (http://www.inkscape.org/) -->
<!-- License: Creative Commons -->
<svg width="56" height="53" xmlns="http://www.w3.org/2000/svg"><defs><style>*{fill:#fff}</style></defs><g id="Page-1" stroke="none" stroke-width="1" fill="none" fill-rule="evenodd"><g id="rpg_dice" transform="translate(-10 -59)" fill="#000" fill-rule="nonzero"><path d="M38.357 109.247a2525.027 2525.027 0 0 0-17.213-6.68l-10.713-4.113 14.54-18.977C32.968 69.04 39.86 60.139 40.285 59.699c.574-.594 19.253 28.032 25.414 38.947.4.708-3.292 3.477-9.666 7.25-5.673 3.357-10.508 6.062-10.745 6.01-.237-.051-3.356-1.248-6.931-2.659zm21.719-6.756l5.219-3.14L53.66 80.675c-6.4-10.272-11.763-18.548-11.92-18.392-.156.156.584 10.619 1.643 23.25 1.06 12.632 1.937 23.572 1.95 24.312.024 1.345 1.541.588 14.743-7.354zm-5.158-4.241c-.361-1.513-.91-3.65-1.221-4.75-.385-1.364-.236-1.682.47-1 1.094 1.058 2.766 8.5 1.91 8.5-.277 0-.799-1.237-1.16-2.75zm-8.897-8.425c-.312-1.196-.106-2.883.46-3.75.89-1.366.954-1.343.483.175-.72 2.315.328 4.908 1.652 4.09.613-.38.753-.169.336.505-1.105 1.789-2.306 1.371-2.93-1.02zm7.443-1.196c-.724-.872-.828-2.209-.287-3.671.616-1.667 1.069-1.947 1.643-1.017.464.75.247 1.62-.52 2.095-1.083.669-1.084 1.09-.007 2.388.72.867 1.084 1.576.809 1.576s-1.012-.617-1.638-1.371zm-9.109 21.121c0-.138-.9-11.05-1.998-24.25-1.099-13.2-1.998-24.162-1.999-24.36 0-.198-3.826 4.611-8.501 10.688-8.267 10.743-9.73 13.05-7.346 11.577.721-.446.883-.274.431.457-.398.644-1.118.927-1.601.628-1.17-.723-11.246 12.654-10.256 13.616 1.431 1.391 31.275 12.504 31.27 11.644zm-15.92-7.433c-.045-1.258-.925-2.45-2.078-2.817-2.2-.698-1.822-1.901 2.045-6.5l2.102-2.5-.45 4.75c-.297 3.119-.065 4.755.676 4.765.811.011.819.221.027.75-.605.404-1.357 1.41-1.671 2.235-.39 1.024-.596.807-.65-.683zm.768-6.347c.302-2.073.143-2.206-1.25-1.05-1.887 1.566-2.145 4.428-.346 3.835.687-.226 1.405-1.48 1.596-2.785zm-2.265-7.22c-.25-1.237-.71-3.46-1.022-4.939-.312-1.479-.115-2.968.437-3.309.617-.381 1.004 1.194 1.004 4.094v4.714l2.154-1.905 2.155-1.905-1.77 2.75c-2.143 3.33-2.376 3.37-2.958.5zm7.919-1.268c1.1-.896 2.9-2.07 4-2.61 2-.982 2-.982 0 .646-1.1.896-2.9 2.07-4 2.61-2 .982-2 .982 0-.646z" id="d4"/></g></g></svg>
